dataset/the-sims-4/icon.svg

<?xml version="1.0" encoding="UTF-8" standalone="no"?>
<svg
   width="128"
   height="128"
   viewBox="0 0 128 128"
   version="1.1"
   id="svg29"
   xml:space="preserve"
   xmlns:xlink="http://www.w3.org/1999/xlink"
   xmlns="http://www.w3.org/2000/svg"
   xmlns:svg="http://www.w3.org/2000/svg"><defs
     id="defs15"><linearGradient
       id="linearGradient55"><stop
         style="stop-color:#c0d662;stop-opacity:0.40000001;"
         offset="0"
         id="stop55" /><stop
         style="stop-color:#8cbc4a;stop-opacity:0;"
         offset="1"
         id="stop56" /></linearGradient><linearGradient
       id="linearGradient53"><stop
         style="stop-color:#4fa645;stop-opacity:1"
         offset="0"
         id="stop53" /><stop
         style="stop-color:#30a451;stop-opacity:0.29908186;"
         offset="1"
         id="stop54" /></linearGradient><linearGradient
       id="linearGradient45"><stop
         style="stop-color:#439b4c;stop-opacity:1;"
         offset="0"
         id="stop45" /><stop
         style="stop-color:#289446;stop-opacity:1;"
         offset="1"
         id="stop46" /></linearGradient><linearGradient
       id="linearGradient40"><stop
         style="stop-color:#b1d05c;stop-opacity:1;"
         offset="0"
         id="stop40" /><stop
         style="stop-color:#8aa932;stop-opacity:1;"
         offset="1"
         id="stop41" /></linearGradient><linearGradient
       id="linearGradient38"><stop
         style="stop-color:#25a153;stop-opacity:1;"
         offset="0"
         id="stop38" /><stop
         style="stop-color:#118146;stop-opacity:1;"
         offset="1"
         id="stop39" /></linearGradient><linearGradient
       id="linearGradient36"><stop
         style="stop-color:#a3ca3c;stop-opacity:1;"
         offset="0"
         id="stop36" /><stop
         style="stop-color:#599d5e;stop-opacity:1;"
         offset="1"
         id="stop37" /></linearGradient><linearGradient
       id="linearGradient30"><stop
         style="stop-color:#ffffff;stop-opacity:0;"
         offset="0"
         id="stop30" /><stop
         style="stop-color:#dadfe1;stop-opacity:1;"
         offset="1"
         id="stop31" /></linearGradient><linearGradient
       id="linearGradient28"><stop
         style="stop-color:#ffffff;stop-opacity:0;"
         offset="0"
         id="stop28" /><stop
         style="stop-color:#c7cfd3;stop-opacity:0.80000001;"
         offset="1"
         id="stop29" /></linearGradient><linearGradient
       id="linearGradient26"><stop
         style="stop-color:#ffffff;stop-opacity:0;"
         offset="0"
         id="stop26" /><stop
         style="stop-color:#d6d7d8;stop-opacity:1;"
         offset="1"
         id="stop27" /></linearGradient><linearGradient
       id="linearGradient24"><stop
         style="stop-color:#ffffff;stop-opacity:0;"
         offset="0"
         id="stop24" /><stop
         style="stop-color:#dce1e4;stop-opacity:1;"
         offset="1"
         id="stop25" /></linearGradient><linearGradient
       id="linearGradient22"><stop
         style="stop-color:#fcfcfc;stop-opacity:0;"
         offset="0"
         id="stop22" /><stop
         style="stop-color:#eaeaea;stop-opacity:1;"
         offset="1"
         id="stop23" /></linearGradient><linearGradient
       id="linearGradient20"><stop
         style="stop-color:#f8f8f8;stop-opacity:1;"
         offset="0"
         id="stop20" /><stop
         style="stop-color:#e2eaed;stop-opacity:1;"
         offset="1"
         id="stop21" /></linearGradient><linearGradient
       id="a-9"
       gradientUnits="userSpaceOnUse"
       x1="0"
       y1="269.46301"
       x2="118.926"
       y2="269.46301"
       gradientTransform="matrix(1,0,0,0.98333333,5e-6,-168.03333)"><stop
         offset="0"
         stop-color="#e5a50a"
         id="stop1-5"
         style="stop-color:#398440;stop-opacity:1;" /><stop
         offset="0.414"
         stop-color="#fbdf9b"
         id="stop2-1"
         style="stop-color:#95d09a;stop-opacity:1;" /><stop
         offset="0.81300002"
         stop-color="#e5a50a"
         id="stop3-6"
         style="stop-color:#398440;stop-opacity:1;" /><stop
         offset="1"
         stop-color="#f8ca5b"
         id="stop4-6"
         style="stop-color:#70c278;stop-opacity:1;" /></linearGradient><linearGradient
       xlink:href="#linearGradient20"
       id="linearGradient21"
       x1="64"
       y1="1.9999962"
       x2="64"
       y2="122"
       gradientUnits="userSpaceOnUse" /><linearGradient
       xlink:href="#linearGradient22"
       id="linearGradient23"
       x1="9.6541262"
       y1="58.630596"
       x2="24.444016"
       y2="29.644415"
       gradientUnits="userSpaceOnUse" /><linearGradient
       xlink:href="#linearGradient24"
       id="linearGradient25"
       x1="4.1205602"
       y1="101.69114"
       x2="12.252523"
       y2="78.942276"
       gradientUnits="userSpaceOnUse" /><linearGradient
       xlink:href="#linearGradient26"
       id="linearGradient27"
       x1="69.854935"
       y1="9.9169273"
       x2="97.530792"
       y2="17.065834"
       gradientUnits="userSpaceOnUse" /><linearGradient
       xlink:href="#linearGradient28"
       id="linearGradient29"
       x1="52.732601"
       y1="93.854248"
       x2="33.813557"
       y2="106.17888"
       gradientUnits="userSpaceOnUse" /><linearGradient
       xlink:href="#linearGradient30"
       id="linearGradient31"
       x1="90.184731"
       y1="58.400269"
       x2="104.5166"
       y2="71.897499"
       gradientUnits="userSpaceOnUse" /><linearGradient
       xlink:href="#linearGradient45"
       id="linearGradient46"
       x1="64"
       y1="64"
       x2="63.99752"
       y2="113.00802"
       gradientUnits="userSpaceOnUse" /><linearGradient
       xlink:href="#linearGradient36"
       id="linearGradient48"
       x1="57.388706"
       y1="34.926605"
       x2="49.42503"
       y2="56.71904"
       gradientUnits="userSpaceOnUse"
       gradientTransform="translate(-2)" /><linearGradient
       xlink:href="#linearGradient36"
       id="linearGradient49"
       gradientUnits="userSpaceOnUse"
       gradientTransform="matrix(-1,0,0,1,130,0)"
       x1="57.388706"
       y1="34.926605"
       x2="49.42503"
       y2="56.71904" /><linearGradient
       xlink:href="#linearGradient38"
       id="linearGradient51"
       x1="80.263908"
       y1="66.241852"
       x2="68.066681"
       y2="101.24309"
       gradientUnits="userSpaceOnUse" /><linearGradient
       xlink:href="#linearGradient38"
       id="linearGradient52"
       gradientUnits="userSpaceOnUse"
       x1="80.263908"
       y1="66.241852"
       x2="68.066681"
       y2="101.24309"
       gradientTransform="matrix(-1,0,0,1,128,0)" /><linearGradient
       xlink:href="#linearGradient53"
       id="linearGradient54"
       x1="64"
       y1="77.83046"
       x2="70.488914"
       y2="84.625404"
       gradientUnits="userSpaceOnUse" /><linearGradient
       xlink:href="#linearGradient55"
       id="linearGradient56"
       x1="64"
       y1="56.167904"
       x2="74.442108"
       y2="48.152359"
       gradientUnits="userSpaceOnUse" /><linearGradient
       xlink:href="#linearGradient40"
       id="linearGradient60"
       x1="64"
       y1="36.495991"
       x2="64"
       y2="62"
       gradientUnits="userSpaceOnUse" /></defs><path
     d="M 124.00001,65.999999 C 124.00001,98.584719 97.137005,125 64.000005,125 c -33.137,0 -60,-26.415281 -60,-59.000001 0,-32.584717 26.863,-58.9999996 60,-58.9999996 33.137,0 60.000005,26.4152826 60.000005,58.9999996 z m 0,0"
     fill="url(#a)"
     id="path4"
     style="fill:url(#a-9);stroke-width:0.991632" /><path
     style="fill:url(#linearGradient21);fill-opacity:1;fill-rule:evenodd;stroke:none;stroke-width:11.1733;stroke-linecap:square;stroke-linejoin:bevel"
     id="path94"
     d="M 124.00001,61.999998 C 124.00001,94.584668 97.136958,121 64,121 30.86291,121 4,94.584668 4,61.999998 4,29.415192 30.86291,2.9999992 64,2.9999992 c 33.136958,0 60.00001,26.4151928 60.00001,58.9999988"
     vector-effect="none" /><text
     style="font-style:normal;font-weight:400;font-size:13.8828px;font-family:Arial;fill:#ffffff;fill-opacity:1;fill-rule:evenodd;stroke:none;stroke-width:0.991632;stroke-linecap:square;stroke-linejoin:bevel;stroke-opacity:1"
     id="text1476"
     font-style="normal"
     font-weight="400"
     font-size="14"
     y="-67.545097"
     x="-183.452"
     xml:space="preserve"
     transform="scale(1.008439,0.99163165)" /><path
     id="path18"
     style="fill-opacity:0.8;stroke-width:0.3;stroke-linecap:round;stroke-linejoin:round;fill:url(#linearGradient25)"
     d="m 4.12056,65.392315 c 0.81054,13.949824 6.54938,26.602226 15.53125,36.298825 l -0.002,-43.060544 z" /><path
     id="path10"
     style="fill-opacity:0.8;stroke-width:0.3;stroke-linecap:round;stroke-linejoin:round;fill:url(#linearGradient23)"
     d="M 31.30611,12.50755 C 15.34019,22.738977 4.63322,40.242784 4.04634,60.239971 l 34.529299,-5.039062 z" /><path
     id="path11"
     style="fill-opacity:0.8;stroke-width:0.3;stroke-linecap:round;stroke-linejoin:round;fill:url(#linearGradient27)"
     d="M 109.78072,23.810284 C 99.95636,12.431704 85.819436,4.7645931 69.854936,3.2497371 L 80.454545,34.529034 Z" /><path
     id="path19"
     style="fill-opacity:0.8;stroke-width:0.3;stroke-linecap:round;stroke-linejoin:round;fill:url(#linearGradient29)"
     d="m 23.63033,105.60326 c 10.66075,9.54876 24.834055,15.37109 40.390621,15.37109 0.103257,0 0.207412,5.1e-4 0.310547,0 L 37.493608,82.835675 Z" /><path
     id="path20"
     style="fill-opacity:0.8;stroke-width:0.3;stroke-linecap:round;stroke-linejoin:round;fill:url(#linearGradient31)"
     d="m 123.28072,52.669659 c -0.40261,-2.498863 -0.96663,-4.946047 -1.67774,-7.330078 L 83.753373,75.269268 101.66158,97.909893 Z" /><path
     id="path31"
     style="opacity:1;fill:url(#linearGradient48);stroke-width:0.3;stroke-linecap:round;stroke-linejoin:round"
     d="M 39.445819,62.000001 64.000001,10.991979 52.165498,62.000001 Z" /><path
     id="path48"
     style="opacity:1;fill:url(#linearGradient49);stroke-width:0.3;stroke-linecap:round;stroke-linejoin:round"
     d="M 88.554183,62.000001 64.000001,10.991979 75.834504,62.000001 Z" /><path
     id="path49"
     style="fill:url(#linearGradient51);fill-opacity:1;stroke-width:0.3;stroke-linecap:round;stroke-linejoin:round"
     d="M 88.554183,62.000001 64.000001,113.00802 75.834504,62.000001 Z" /><path
     id="path51"
     style="fill:url(#linearGradient52);fill-opacity:1;stroke-width:0.3;stroke-linecap:round;stroke-linejoin:round"
     d="M 39.445819,62.000001 64.000001,113.00802 52.165498,62.000001 Z" /><path
     id="path35"
     style="fill:url(#linearGradient46);stroke-width:0.3;stroke-linecap:round;stroke-linejoin:round"
     d="M 52.165498,62.000001 64.000001,113.00802 75.834504,62.000001 Z" /><path
     id="rect52"
     style="stroke-width:0.3;stroke-linecap:round;stroke-linejoin:round;fill:url(#linearGradient54);fill-opacity:1;opacity:1"
     d="M 49.468172,82.820095 87.516379,64.191899 84.151707,71.145554 56.826125,98.105255 Z" /><path
     id="path36"
     style="fill-opacity:1;stroke-width:0.3;stroke-linecap:round;stroke-linejoin:round;fill:url(#linearGradient60);opacity:1"
     d="M 52.165498,62.000001 64.000001,10.991982 75.834504,62.000001 Z" /><path
     id="path52"
     style="stroke-width:0.3;stroke-linecap:round;stroke-linejoin:round;fill:url(#linearGradient56)"
     d="M 42.177548,56.432715 77.729959,39.514126 79.103948,42.368405 63.227274,62.066631 39.445819,62.000001 Z" /></svg>

<svg xmlns="http://www.w3.org/2000/svg" xmlns:xlink="http://www.w3.org/1999/xlink" xml:space="preserve" width="128" height="128" viewBox="0 0 128 128"><defs><linearGradient id="l"><stop offset="0" style="stop-color:#c0d662;stop-opacity:.40000001"/><stop offset="1" style="stop-color:#8cbc4a;stop-opacity:0"/></linearGradient><linearGradient id="k"><stop offset="0" style="stop-color:#4fa645;stop-opacity:1"/><stop offset="1" style="stop-color:#30a451;stop-opacity:.29908186"/></linearGradient><linearGradient id="h"><stop offset="0" style="stop-color:#439b4c;stop-opacity:1"/><stop offset="1" style="stop-color:#289446;stop-opacity:1"/></linearGradient><linearGradient id="m"><stop offset="0" style="stop-color:#b1d05c;stop-opacity:1"/><stop offset="1" style="stop-color:#8aa932;stop-opacity:1"/></linearGradient><linearGradient id="j"><stop offset="0" style="stop-color:#25a153;stop-opacity:1"/><stop offset="1" style="stop-color:#118146;stop-opacity:1"/></linearGradient><linearGradient id="i"><stop offset="0" style="stop-color:#a3ca3c;stop-opacity:1"/><stop offset="1" style="stop-color:#599d5e;stop-opacity:1"/></linearGradient><linearGradient id="g"><stop offset="0" style="stop-color:#fff;stop-opacity:0"/><stop offset="1" style="stop-color:#dadfe1;stop-opacity:1"/></linearGradient><linearGradient id="f"><stop offset="0" style="stop-color:#fff;stop-opacity:0"/><stop offset="1" style="stop-color:#c7cfd3;stop-opacity:.80000001"/></linearGradient><linearGradient id="e"><stop offset="0" style="stop-color:#fff;stop-opacity:0"/><stop offset="1" style="stop-color:#d6d7d8;stop-opacity:1"/></linearGradient><linearGradient id="d"><stop offset="0" style="stop-color:#fff;stop-opacity:0"/><stop offset="1" style="stop-color:#dce1e4;stop-opacity:1"/></linearGradient><linearGradient id="c"><stop offset="0" style="stop-color:#fcfcfc;stop-opacity:0"/><stop offset="1" style="stop-color:#eaeaea;stop-opacity:1"/></linearGradient><linearGradient id="b"><stop offset="0" style="stop-color:#f8f8f8;stop-opacity:1"/><stop offset="1" style="stop-color:#e2eaed;stop-opacity:1"/></linearGradient><linearGradient id="n" x1="0" x2="118.926" y1="269.463" y2="269.463" gradientTransform="matrix(1 0 0 .98333 0 -168.033)" gradientUnits="userSpaceOnUse"><stop offset="0" stop-color="#e5a50a" style="stop-color:#398440;stop-opacity:1"/><stop offset=".414" stop-color="#fbdf9b" style="stop-color:#95d09a;stop-opacity:1"/><stop offset=".813" stop-color="#e5a50a" style="stop-color:#398440;stop-opacity:1"/><stop offset="1" stop-color="#f8ca5b" style="stop-color:#70c278;stop-opacity:1"/></linearGradient><linearGradient xlink:href="#b" id="o" x1="64" x2="64" y1="2" y2="122" gradientUnits="userSpaceOnUse"/><linearGradient xlink:href="#c" id="q" x1="9.654" x2="24.444" y1="58.631" y2="29.644" gradientUnits="userSpaceOnUse"/><linearGradient xlink:href="#d" id="p" x1="4.121" x2="12.253" y1="101.691" y2="78.942" gradientUnits="userSpaceOnUse"/><linearGradient xlink:href="#e" id="r" x1="69.855" x2="97.531" y1="9.917" y2="17.066" gradientUnits="userSpaceOnUse"/><linearGradient xlink:href="#f" id="s" x1="52.733" x2="33.814" y1="93.854" y2="106.179" gradientUnits="userSpaceOnUse"/><linearGradient xlink:href="#g" id="t" x1="90.185" x2="104.517" y1="58.4" y2="71.897" gradientUnits="userSpaceOnUse"/><linearGradient xlink:href="#h" id="y" x1="64" x2="63.998" y1="64" y2="113.008" gradientUnits="userSpaceOnUse"/><linearGradient xlink:href="#i" id="u" x1="57.389" x2="49.425" y1="34.927" y2="56.719" gradientTransform="translate(-2)" gradientUnits="userSpaceOnUse"/><linearGradient xlink:href="#i" id="v" x1="57.389" x2="49.425" y1="34.927" y2="56.719" gradientTransform="matrix(-1 0 0 1 130 0)" gradientUnits="userSpaceOnUse"/><linearGradient xlink:href="#j" id="w" x1="80.264" x2="68.067" y1="66.242" y2="101.243" gradientUnits="userSpaceOnUse"/><linearGradient xlink:href="#j" id="x" x1="80.264" x2="68.067" y1="66.242" y2="101.243" gradientTransform="matrix(-1 0 0 1 128 0)" gradientUnits="userSpaceOnUse"/><linearGradient xlink:href="#k" id="z" x1="64" x2="70.489" y1="77.83" y2="84.625" gradientUnits="userSpaceOnUse"/><linearGradient xlink:href="#l" id="B" x1="64" x2="74.442" y1="56.168" y2="48.152" gradientUnits="userSpaceOnUse"/><linearGradient xlink:href="#m" id="A" x1="64" x2="64" y1="36.496" y2="62" gradientUnits="userSpaceOnUse"/></defs><path fill="url(#a)" d="M124 66c0 32.585-26.863 59-60 59S4 98.585 4 66 30.863 7 64 7s60 26.415 60 59m0 0" style="fill:url(#n);stroke-width:.991632"/><path d="M124 62c0 32.585-26.863 59-60 59S4 94.585 4 62 30.863 3 64 3s60 26.415 60 59" style="fill:url(#o);fill-opacity:1;fill-rule:evenodd;stroke:none;stroke-width:11.1733;stroke-linecap:square;stroke-linejoin:bevel"/><path d="M4.12 65.392c.811 13.95 6.55 26.603 15.532 36.3L19.65 58.63z" style="fill-opacity:.8;stroke-width:.3;stroke-linecap:round;stroke-linejoin:round;fill:url(#p)"/><path d="M31.306 12.508C15.34 22.739 4.633 40.243 4.046 60.24l34.53-5.04z" style="fill-opacity:.8;stroke-width:.3;stroke-linecap:round;stroke-linejoin:round;fill:url(#q)"/><path d="M109.78 23.81C99.957 12.432 85.82 4.765 69.856 3.25l10.6 31.279Z" style="fill-opacity:.8;stroke-width:.3;stroke-linecap:round;stroke-linejoin:round;fill:url(#r)"/><path d="M23.63 105.603c10.661 9.549 24.834 15.371 40.391 15.371h.31L37.494 82.836Z" style="fill-opacity:.8;stroke-width:.3;stroke-linecap:round;stroke-linejoin:round;fill:url(#s)"/><path d="M123.28 52.67a58 58 0 0 0-1.677-7.33l-37.85 29.93 17.909 22.64Z" style="fill-opacity:.8;stroke-width:.3;stroke-linecap:round;stroke-linejoin:round;fill:url(#t)"/><path d="M39.446 62 64 10.992 52.165 62Z" style="opacity:1;fill:url(#u);stroke-width:.3;stroke-linecap:round;stroke-linejoin:round"/><path d="M88.554 62 64 10.992 75.835 62Z" style="opacity:1;fill:url(#v);stroke-width:.3;stroke-linecap:round;stroke-linejoin:round"/><path d="M88.554 62 64 113.008 75.835 62Z" style="fill:url(#w);fill-opacity:1;stroke-width:.3;stroke-linecap:round;stroke-linejoin:round"/><path d="M39.446 62 64 113.008 52.165 62Z" style="fill:url(#x);fill-opacity:1;stroke-width:.3;stroke-linecap:round;stroke-linejoin:round"/><path d="M52.165 62 64 113.008 75.835 62Z" style="fill:url(#y);stroke-width:.3;stroke-linecap:round;stroke-linejoin:round"/><path d="m49.468 82.82 38.048-18.628-3.364 6.954-27.326 26.96Z" style="stroke-width:.3;stroke-linecap:round;stroke-linejoin:round;fill:url(#z);fill-opacity:1;opacity:1"/><path d="M52.165 62 64 10.992 75.835 62Z" style="fill-opacity:1;stroke-width:.3;stroke-linecap:round;stroke-linejoin:round;fill:url(#A);opacity:1"/><path d="M42.178 56.433 77.73 39.514l1.374 2.854-15.877 19.699L39.446 62Z" style="stroke-width:.3;stroke-linecap:round;stroke-linejoin:round;fill:url(#B)"/></svg>
